Origami/64x64/apps/contact-editor.svg

<svg width="64" height="64" version="1" xmlns="http://www.w3.org/2000/svg">
 <path d="m4.0508 32c-0.0118 0.334-0.0508 0.662-0.0508 1 0 15.512 12.488 28 28 28s28-12.488 28-28c0-0.33768-0.03904-0.66528-0.05078-1-0.528 15.042-12.776 27-27.95 27-15.1744 0-27.422-11.958-27.95-27z" style="opacity:.2"/>
 <rect transform="matrix(0,-1,-1,0,0,0)" x="-60" y="-60" width="56" height="56" rx="28" ry="28" style="fill:#f5b35d"/>
 <path d="m32 14c-5.522 0-10 4.478-10 10s4.478 10 10 10 10-4.478 10-10-4.478-10-10-10zm-14 36h28c0-10-5.99-12-13.994-12-8.006 0-14.006 2-14.006 12z" style="fill:#4d4d4d"/>
 <path d="m32 4c-15.512 0-28 12.488-28 28 0 0.113448 0.0112808 0.224113 0.0175781 0.335938 0.3515432-15.201757 12.69315-27.335938 27.982422-27.335938h0.001953c15.289273 0 27.630879 12.134181 27.982422 27.335938 0.006271-0.111825 0.017578-0.22249 0.017578-0.335938 0-15.512-12.488-28-28-28h-0.001953z" style="fill:#ffffff;opacity:.1"/>
 <path d="M 63.958,45.848 A 16,16 0 0 1 48,61 16,16 0 0 1 32.042,46.152 16,16 0 0 0 32,47 16,16 0 0 0 48,63 16,16 0 0 0 64,47 16,16 0 0 0 63.95704,45.84766 Z" style="fill-rule:evenodd;opacity:.2"/>
 <circle cx="48" cy="46" r="16" style="fill-rule:evenodd;fill:#a559d6"/>
 <path d="m40 50.436v3.564h3.5638l9.0008-9.0008-3.5638-3.5638zm15.7172-8.5782c0.37696-0.37694 0.37696-0.9709 0-1.34786l-2.2274-2.2274c-0.37696-0.37696-0.97092-0.37696-1.34786 0l-1.862 1.874 3.564 3.564z" style="fill:#ffffff"/>
</svg>

<svg xmlns="http://www.w3.org/2000/svg" width="64" height="64" version="1">
 <path style="opacity:0.2" d="M 4.0508,32 C 4.039,32.334 4,32.662 4,33 4,48.512 16.488,61 32,61 47.512,61 60,48.512 60,33 c 0,-0.33768 -0.03904,-0.66528 -0.05078,-1 -0.528,15.042 -12.776,27 -27.95,27 -15.1744,0 -27.422,-11.958 -27.95,-27 z"/>
 <rect style="fill:#f5b35d" width="56" height="56" x="-60" y="-60" rx="28" ry="28" transform="matrix(0,-1,-1,0,0,0)"/>
 <path style="fill:#4d4d4d" d="m 32,14 c -5.522,0 -10,4.478 -10,10 0,5.522 4.478,10 10,10 5.522,0 10,-4.478 10,-10 C 42,18.478 37.522,14 32,14 Z M 18,50 46,50 C 46,40 40.01,38 32.006,38 24,38 18,40 18,50 Z"/>
 <path style="opacity:0.1;fill:#ffffff" d="M 32 4 C 16.488 4 4 16.488 4 32 C 4 32.113448 4.0112808 32.224113 4.0175781 32.335938 C 4.3691213 17.134181 16.710728 5 32 5 L 32.001953 5 C 47.291226 5 59.632832 17.134181 59.984375 32.335938 C 59.990646 32.224113 60.001953 32.113448 60.001953 32 C 60.001953 16.488 47.513953 4 32.001953 4 L 32 4 z"/>
 <path style="opacity:0.2;fill-rule:evenodd" d="M 63.958,45.848 A 16,16 0 0 1 48,61 16,16 0 0 1 32.042,46.152 16,16 0 0 0 32,47 16,16 0 0 0 48,63 16,16 0 0 0 64,47 16,16 0 0 0 63.95704,45.84766 Z"/>
 <circle style="fill:#a559d6;fill-rule:evenodd" cx="48" cy="46" r="16"/>
 <path style="fill:#ffffff" d="m 40,50.436 0,3.564 3.5638,0 9.0008,-9.0008 -3.5638,-3.5638 z m 15.7172,-8.5782 c 0.37696,-0.37694 0.37696,-0.9709 0,-1.34786 l -2.2274,-2.2274 c -0.37696,-0.37696 -0.97092,-0.37696 -1.34786,0 l -1.862,1.874 3.564,3.564 z"/>
</svg>
